proprietary/assets/icons/functioneel/activiteit.svg

<svg height="48" width="48" xmlns="http://www.w3.org/2000/svg"><path d="m41 8h-5v-4c0-1.602-1.398-2-3-2s-3 .398-3 2v4h-14v-4c0-1.602-1.398-2-3-2s-3 .398-3 2v4h-5c-1.602 0-3 1.398-3 3v32c0 1.602 1.398 3 3 3h36c1.602 0 3-1.398 3-3v-32c0-1.602-1.398-3-3-3zm-35 34v-24h34v24zm22.602-19.398-7 7.199-4.602-3.199c-.801-.602-1.801-.402-2.398.199s-.602 1.598 0 2.398l5.796 7.801c.402.398 1 .801 1.602.801s1.199-.402 1.602-.801l8-12c.598-.801.398-2-.402-2.602s-1.801-.398-2.598.203zm0 0"/></svg>

<svg xmlns="http://www.w3.org/2000/svg" width="48" height="48" fill="rgb(0%,0%,0%)" xmlns:v="https://vecta.io/nano"><path d="M41 8h-5V4c0-1.602-1.398-2-3-2s-3 .398-3 2v4H16V4c0-1.602-1.398-2-3-2s-3 .398-3 2v4H5c-1.602 0-3 1.398-3 3v32c0 1.602 1.398 3 3 3h36c1.602 0 3-1.398 3-3V11c0-1.602-1.398-3-3-3zM6 42V18h34v24zm22.602-19.398l-7 7.199L17 26.602c-.801-.602-1.801-.402-2.398.199s-.602 1.598 0 2.398L20.398 37c.402.398 1 .801 1.602.801s1.199-.402 1.602-.801l8-12c.598-.801.398-2-.402-2.602s-1.801-.398-2.598.203zm0 0"/></svg>
